X:10
T:Polska ur Petter Dufvas notbok (Ma6-10)
R:Polska
O:Verkelbäck, Småland
B:Petter Dufvas notbok
S:Petter Dufva
N:Smus Ma6 bild 13
N:OA: Dal. 49. Skräddarpolskan (?)
Z:Till abc Jonas Brunskog
M:3/4
L:1/8
K:G
GG/A/ BG GB|BB/c/ dB dB|dd gg bb|ag/f/ g2 G2:|
|:BB AA AA &z2 D4|BB AA AA &z2 D4|BB cc BB &z2 D4|AG/G/ G2 G,2:|

